dist/images/socialMedia/insta.svg

<svg width="13" height="13" viewBox="0 0 13 13" fill="none" xmlns="http://www.w3.org/2000/svg">
<path d="M6.50137 3.16138C4.65801 3.16138 3.16504 4.65435 3.16504 6.4977C3.16504 8.34106 4.65801 9.83403 6.50137 9.83403C8.34473 9.83403 9.8377 8.34106 9.8377 6.4977C9.8377 4.65435 8.34219 3.16138 6.50137 3.16138ZM6.50137 8.66353C5.30547 8.66353 4.33555 7.6936 4.33555 6.4977C4.33555 5.30181 5.30547 4.33188 6.50137 4.33188C7.69727 4.33188 8.66719 5.30181 8.66719 6.4977C8.66719 7.6936 7.69727 8.66353 6.50137 8.66353Z" fill="white"/>
<path d="M9.18026 0.0409479C7.98437 -0.0149115 5.02129 -0.0123724 3.82539 0.0409479C2.77168 0.0891901 1.84493 0.345635 1.0959 1.09212C-0.153311 2.34388 0.00664932 4.02728 0.00664932 6.49778C0.00664932 9.02669 -0.132999 10.672 1.0959 11.9034C2.3502 13.1577 4.05898 12.9927 6.50156 12.9927C9.00507 12.9927 9.87088 12.9952 10.757 12.6525C11.9605 12.1853 12.8695 11.1087 12.9584 9.17649C13.0142 7.9806 13.0117 5.01751 12.9584 3.82161C12.8517 1.53899 11.6254 0.152667 9.18026 0.0409479ZM11.0719 11.0757C10.2517 11.8958 9.11425 11.8222 6.48378 11.8222C3.77461 11.8222 2.69043 11.8628 1.89571 11.0681C0.984186 10.1591 1.14922 8.70169 1.14922 6.49017C1.14922 3.49661 0.841999 1.34095 3.8457 1.1886C4.53633 1.16321 4.73945 1.1556 6.47617 1.1556L6.50156 1.17083C9.38846 1.17083 11.6533 0.868682 11.7879 3.87239C11.8183 4.55794 11.826 4.7636 11.826 6.49778C11.826 9.17395 11.8767 10.2658 11.0719 11.0757Z" fill="white"/>
<path d="M9.96992 3.80875C10.4004 3.80875 10.7494 3.45976 10.7494 3.02925C10.7494 2.59875 10.4004 2.24976 9.96992 2.24976C9.53942 2.24976 9.19043 2.59875 9.19043 3.02925C9.19043 3.45976 9.53942 3.80875 9.96992 3.80875Z" fill="white"/>
</svg>

<svg width="13" height="13" fill="none" xmlns="http://www.w3.org/2000/svg"><path d="M6.501 3.161a3.335 3.335 0 0 0-3.336 3.337 3.335 3.335 0 0 0 3.336 3.336 3.335 3.335 0 1 0 0-6.673zm0 5.503a2.166 2.166 0 1 1 .001-4.333 2.166 2.166 0 0 1 0 4.333z" fill="#fff"/><path d="M9.18.04c-1.196-.055-4.159-.052-5.355 0-1.053.05-1.98.306-2.73 1.052C-.152 2.344.008 4.027.008 6.498c0 2.529-.14 4.174 1.089 5.405 1.254 1.255 2.963 1.09 5.406 1.09 2.503 0 3.369.002 4.255-.34 1.204-.468 2.113-1.544 2.201-3.477.056-1.195.054-4.158 0-5.354C12.852 1.539 11.625.152 9.18.04zm1.892 11.036c-.82.82-1.958.746-4.588.746-2.71 0-3.794.04-4.588-.754-.912-.909-.747-2.366-.747-4.578 0-2.993-.307-5.149 2.697-5.301.69-.026.893-.033 2.63-.033l.026.015c2.886 0 5.151-.302 5.286 2.701.03.686.038.892.038 2.626 0 2.676.05 3.768-.754 4.578z" fill="#fff"/><path d="M9.97 3.809a.78.78 0 1 0 0-1.56.78.78 0 0 0 0 1.56z" fill="#fff"/></svg>
